X: 1
T: Dancing Up a Storm  [Am/A]
C: Charlene Thomson (2003)
R: jig
Z: 2011 John Chambers <jc:trillian.mit.edu>
S: printed MS of unknown origin
M: 6/8
L: 1/8
K: Am
[|"Am"ABc "E"E^F^G | "Am"A3  A2A |  "F"AGF  AGF  | "E"E3  E3 \
| "Dm"DFA    FAd   | "Am"c3  A2A | "B7"B2B  BcB  | "E"B3- B3 |
| "Am"cBA "E"BA^G  | "Am"A3  E2A | "Dm"FED  FAF  |"Am"E3- "(A7)"E2A \
| "Dm"FAd    fed   | "Am"edc cBA | "E7"B^GE E^FG | "A"A3  A,3 |]
K: A
[|"E"E2E EFG | "A"A3  A2A | "E"B2e     B2e | "A"c3  A3 \
| "D"d2d dcB | "A"cBA AGF | "E"EFE "E7"EFG | "A"A2c e3 |
| "E"E2E EFG | "A"A3  A2A | "E"B2e     B2e | "A"c3  A3 \
| "D"F2F FGA | "A"EAE C2E | "E"EGB "E7"dcB | "A"A3 Ha3 |]
